img/ui/evema-logo.svg

<svg width="177" height="32" viewBox="0 0 177 32" fill="none" xmlns="http://www.w3.org/2000/svg">
<path d="M0 17.5872C0 15.5039 0.212078 13.6531 0.636233 12.0347C1.06039 10.4163 1.62876 8.97005 2.34134 7.69599C3.07088 6.40472 3.91919 5.27701 4.88627 4.31286C5.87031 3.3487 6.92221 2.54811 8.04198 1.91109C10.2476 0.637029 12.4193 0 14.557 0C16.6948 0 18.4083 0.387382 19.6978 1.16215C20.9872 1.91969 22.0391 2.9355 22.8535 4.20955C24.3635 6.63715 25.1185 9.86533 25.1185 13.8941C25.1185 15.392 24.4992 16.1581 23.2607 16.1926L5.49705 16.58C5.59885 20.316 6.54896 23.0794 8.34738 24.8699C9.87434 26.385 11.8509 27.1426 14.2771 27.1426C17.8909 27.1426 20.826 26.3764 23.0825 24.8441C23.2352 24.8441 23.4219 24.9732 23.6424 25.2315C24.0666 25.748 24.2786 26.1956 24.2786 26.5744C24.2786 27.4008 23.2607 28.4597 21.2247 29.751C18.8834 31.2316 16.1518 31.9719 13.0301 31.9719C8.95816 31.9719 5.76003 30.6548 3.43566 28.0206C1.14522 25.4381 0 21.9603 0 17.5872ZM5.64975 13.2485C10.536 13.0074 15.0066 12.6889 19.0615 12.2929C19.2482 6.81793 17.3819 4.08043 13.4627 4.08043C11.274 4.08043 9.48411 4.94128 8.09288 6.66297C6.82042 8.24694 6.00604 10.4421 5.64975 13.2485Z" fill="#616353"/>
<path d="M40.1845 30.2158C34.5178 15.2026 31.5996 7.45496 31.4299 6.97288C31.2602 6.47359 31.0821 6.01734 30.8955 5.60413C30.4713 4.63998 30.0896 4.1579 29.7503 4.1579C29.5297 4.1579 29.2837 4.18373 29.0122 4.23538C28.7408 4.28703 28.5202 4.19234 28.3505 3.9513C28.1809 3.71026 28.096 3.40896 28.096 3.04741C28.096 2.68585 28.2572 2.31569 28.5796 1.93691C28.9189 1.55814 29.3346 1.23101 29.8266 0.955543C30.8955 0.318514 31.7438 0 32.3715 0C32.9993 0 33.4998 0.017217 33.873 0.051651C34.2463 0.0860849 34.5941 0.215212 34.9165 0.439033C35.5951 0.886675 36.1635 1.85083 36.6216 3.33149L44.0782 25.903C45.2659 23.4754 46.1481 21.6159 46.7249 20.3247L48.3028 16.5541C50.203 11.8022 51.1531 8.46215 51.1531 6.53385V6.19812C51.1531 5.33727 50.958 4.6572 50.5678 4.1579C50.1945 3.65861 49.5244 3.35731 48.5573 3.25401C48.3876 2.97854 48.3028 2.69446 48.3028 2.40177C48.3028 2.09186 48.464 1.79057 48.7863 1.49788C49.1257 1.18797 49.5498 0.921109 50.0588 0.697288C51.1107 0.232429 52.2559 0 53.4945 0C54.75 0 55.717 0.197995 56.3957 0.593986C57.0913 0.97276 57.4391 1.73031 57.4391 2.86663C57.4391 5.27701 55.8273 10.0719 52.6037 17.2514L50.2879 22.1841C48.693 25.4553 47.4884 27.6763 46.674 28.8471C45.215 30.9303 43.934 31.9719 42.8312 31.9719C42.0338 31.9719 41.3212 31.6534 40.6935 31.0164C40.4729 30.7926 40.3032 30.5257 40.1845 30.2158Z" fill="#616353"/>
<path d="M62.1472 17.5872C62.1472 15.5039 62.3593 13.6531 62.7835 12.0347C63.2076 10.4163 63.776 8.97005 64.4886 7.69599C65.2181 6.40472 66.0664 5.27701 67.0335 4.31286C68.0175 3.3487 69.0695 2.54811 70.1892 1.91109C72.3948 0.637029 74.5665 0 76.7042 0C78.842 0 80.5556 0.387382 81.845 1.16215C83.1344 1.91969 84.1863 2.9355 85.0007 4.20955C86.5107 6.63715 87.2657 9.86533 87.2657 13.8941C87.2657 15.392 86.6464 16.1581 85.4079 16.1926L67.6443 16.58C67.7461 20.316 68.6962 23.0794 70.4946 24.8699C72.0216 26.385 73.9981 27.1426 76.4243 27.1426C80.0381 27.1426 82.9733 26.3764 85.2298 24.8441C85.3825 24.8441 85.5691 24.9732 85.7896 25.2315C86.2138 25.748 86.4259 26.1956 86.4259 26.5744C86.4259 27.4008 85.4079 28.4597 83.372 29.751C81.0306 31.2316 78.2991 31.9719 75.1773 31.9719C71.1054 31.9719 67.9073 30.6548 65.5829 28.0206C63.2925 25.4381 62.1472 21.9603 62.1472 17.5872ZM67.797 13.2485C72.6833 13.0074 77.1538 12.6889 81.2088 12.2929C81.3954 6.81793 79.5291 4.08043 75.6099 4.08043C73.4213 4.08043 71.6313 4.94128 70.2401 6.66297C68.9677 8.24694 68.1533 10.4421 67.797 13.2485Z" fill="#616353"/>
<path d="M106.633 31.6104C106.293 31.5243 105.75 31.4813 105.004 31.4813H96.8856C95.2568 31.4813 94.2134 31.1886 93.7553 30.6032C93.5687 30.3794 93.4753 30.1211 93.4753 29.8284C93.4753 29.1053 93.6111 28.5716 93.8825 28.2273C94.2897 28.365 94.7478 28.4339 95.2568 28.4339C95.7828 28.4339 96.173 28.2186 96.4275 27.7882C96.6989 27.3578 96.8262 26.5572 96.8092 25.3864V8.49658C96.8092 6.87819 96.5123 5.87099 95.9185 5.475C95.681 5.32005 95.3671 5.24257 94.9769 5.24257C94.5866 5.24257 94.2728 5.30283 94.0352 5.42335C93.8147 5.54387 93.628 5.62996 93.4753 5.68161C93.3396 5.73326 93.2209 5.73326 93.1191 5.68161C93.0173 5.61274 92.9155 5.51805 92.8137 5.39753C92.5592 5.12205 92.4319 4.83797 92.4319 4.54529C92.4319 4.23538 92.5337 3.91686 92.7373 3.58974C92.9579 3.2454 93.3057 2.85802 93.7807 2.4276C94.2558 1.97995 94.7987 1.57535 95.4095 1.2138C96.7838 0.404599 98.158 0 99.5323 0C101.042 0 101.95 0.97276 102.255 2.91828C102.357 3.50366 102.425 4.10625 102.459 4.72606C105.004 2.67724 107.668 1.24823 110.45 0.439033C111.468 0.146344 112.452 0 113.402 0C117.44 0 119.994 1.6184 121.062 4.85519C123.709 2.72028 126.398 1.24823 129.13 0.439033C130.165 0.146344 131.217 0 132.286 0C133.354 0 134.381 0.146344 135.365 0.439033C136.366 0.731722 137.223 1.20519 137.935 1.85943C139.496 3.27123 140.277 5.42335 140.277 8.31581V25.6447C140.277 27.0565 140.752 27.9346 141.702 28.2789C141.973 28.3822 142.296 28.4683 142.669 28.5372C143.042 28.606 143.381 28.6921 143.687 28.7954C143.992 28.8815 144.23 28.9848 144.399 29.1053C144.688 29.3291 144.832 29.6907 144.832 30.19C144.832 30.7926 144.696 31.2661 144.425 31.6104C144.086 31.5243 143.543 31.4813 142.796 31.4813H134.678C133.049 31.4813 132.006 31.1886 131.548 30.6032C131.361 30.3794 131.268 30.1211 131.268 29.8284C131.268 29.1053 131.403 28.5716 131.675 28.2273C132.082 28.365 132.532 28.4339 133.024 28.4339C133.516 28.4339 133.889 28.2703 134.143 27.9432C134.415 27.5988 134.568 26.9704 134.601 26.0579V10.1494C134.601 7.22253 133.745 5.58691 132.031 5.24257C131.505 5.13927 130.877 5.08762 130.148 5.08762C129.435 5.08762 128.655 5.18231 127.806 5.3717C126.975 5.54387 126.178 5.78491 125.414 6.09481C123.938 6.69741 122.649 7.46356 121.546 8.39328V25.6447C121.546 27.0737 122.021 27.9518 122.971 28.2789C123.243 28.3822 123.565 28.4683 123.938 28.5372C124.311 28.606 124.642 28.6921 124.931 28.7954C125.236 28.8815 125.474 28.9848 125.643 29.1053C125.932 29.3291 126.076 29.6907 126.076 30.19C126.076 30.8098 125.949 31.2833 125.694 31.6104C125.355 31.5243 124.812 31.4813 124.065 31.4813H115.947C114.318 31.4813 113.275 31.1886 112.817 30.6032C112.63 30.3794 112.537 30.1211 112.537 29.8284C112.537 29.0881 112.664 28.5544 112.919 28.2273C113.343 28.365 113.801 28.4339 114.293 28.4339C114.785 28.4339 115.158 28.2531 115.413 27.8915C115.684 27.53 115.837 26.8671 115.871 25.903V10.1494C115.871 7.22253 115.014 5.58691 113.3 5.24257C112.774 5.13927 112.138 5.08762 111.392 5.08762C110.645 5.08762 109.831 5.19092 108.949 5.39753C108.066 5.60413 107.226 5.8796 106.429 6.22394C104.902 6.86097 103.587 7.67017 102.484 8.65154V25.6447C102.484 27.0565 102.968 27.9346 103.935 28.2789C104.19 28.3822 104.503 28.4683 104.877 28.5372C105.25 28.606 105.589 28.6921 105.895 28.7954C106.2 28.8815 106.438 28.9848 106.607 29.1053C106.896 29.3291 107.04 29.6907 107.04 30.19C107.04 30.7926 106.904 31.2661 106.633 31.6104Z" fill="#616353"/>
<path d="M166.668 28.2014C164.191 30.7151 161.196 31.9719 157.684 31.9719C154.969 31.9719 152.798 31.18 151.169 29.596C149.523 27.9948 148.7 25.9202 148.7 23.3721C148.7 20.2041 150.092 17.8282 152.874 16.2442C155.385 14.798 158.923 14.0749 163.486 14.0749H166.668C166.685 13.4206 166.693 12.7836 166.693 12.1638V10.2269C166.693 7.91982 166.362 6.29281 165.701 5.34588C164.954 4.27842 163.682 3.7447 161.883 3.7447C157.76 3.7447 155.64 5.24257 155.521 8.23833C155.504 8.70319 155.512 9.09057 155.546 9.40048C155.207 9.67595 154.63 9.81368 153.816 9.81368C153.018 9.81368 152.433 9.71899 152.06 9.5296C151.703 9.34022 151.389 9.08196 151.118 8.75484C150.541 8.08338 150.253 7.23114 150.253 6.19812C150.253 5.14788 150.55 4.23538 151.143 3.46061C151.754 2.66863 152.577 2.023 153.612 1.5237C155.631 0.507901 158.015 0 160.763 0C163.512 0 165.573 0.275472 166.948 0.826415C168.339 1.36014 169.442 2.07465 170.256 2.96993C171.698 4.55389 172.419 6.68019 172.419 9.34883L172.165 21.7451C172.165 24.0005 172.266 25.4295 172.47 26.0321C172.691 26.6347 172.945 27.0393 173.234 27.2459C173.539 27.4525 173.904 27.5558 174.328 27.5558C174.769 27.5558 175.125 27.4869 175.397 27.3492L176.109 27.0135C176.347 26.9274 176.55 27.0307 176.72 27.3234C176.907 27.5988 177 27.8485 177 28.0723C177 28.2789 176.907 28.5544 176.72 28.8987C176.55 29.2431 176.22 29.6132 175.728 30.0092C175.252 30.388 174.71 30.7237 174.099 31.0164C170.723 32.6348 168.424 32.256 167.202 29.8801C166.948 29.4152 166.769 28.8557 166.668 28.2014ZM166.591 24.8183C166.591 22.339 166.608 19.877 166.642 17.4322C163.113 17.5699 160.712 17.8024 159.44 18.1295C158.184 18.4394 157.277 18.7407 156.717 19.0334C156.157 19.3261 155.716 19.6704 155.394 20.0664C154.868 20.7206 154.605 21.7106 154.605 23.0363C154.605 24.3448 155.063 25.3951 155.979 26.187C156.895 26.9618 158.21 27.3492 159.924 27.3492C162.35 27.3492 164.572 26.5056 166.591 24.8183Z" fill="#616353"/>
</svg>

<svg width="177" height="32" fill="none" xmlns="http://www.w3.org/2000/svg"><path d="M0 17.587c0-2.083.212-3.934.636-5.552.424-1.619.993-3.065 1.705-4.339a15.524 15.524 0 0 1 2.545-3.383A15.365 15.365 0 0 1 8.042 1.91C10.248.637 12.419 0 14.557 0s3.851.387 5.14 1.162a9.276 9.276 0 0 1 3.157 3.048c1.51 2.427 2.265 5.655 2.265 9.684 0 1.498-.62 2.264-1.858 2.299l-17.764.387c.102 3.736 1.052 6.5 2.85 8.29 1.527 1.515 3.504 2.273 5.93 2.273 3.614 0 6.549-.767 8.806-2.299.152 0 .339.13.56.387.424.517.636.965.636 1.343 0 .827-1.018 1.886-3.054 3.177-2.342 1.48-5.073 2.22-8.195 2.22-4.072 0-7.27-1.316-9.594-3.95C1.146 25.438 0 21.96 0 17.587Zm5.65-4.338c4.886-.242 9.357-.56 13.411-.956.187-5.475-1.68-8.213-5.598-8.213-2.189 0-3.979.861-5.37 2.583-1.273 1.584-2.087 3.78-2.443 6.585ZM40.184 30.216C34.519 15.203 31.6 7.455 31.43 6.973c-.17-.5-.348-.956-.535-1.369-.424-.964-.805-1.446-1.145-1.446-.22 0-.466.026-.738.077-.271.052-.492-.043-.662-.284-.17-.24-.254-.542-.254-.904 0-.361.161-.731.484-1.11a4.81 4.81 0 0 1 1.247-.981C30.895.319 31.744 0 32.37 0 33 0 33.5.017 33.873.052c.373.034.721.163 1.044.387.678.448 1.246 1.412 1.705 2.892l7.456 22.572c1.188-2.428 2.07-4.287 2.647-5.578l1.578-3.77c1.9-4.753 2.85-8.093 2.85-10.021v-.336c0-.86-.195-1.54-.585-2.04-.373-.5-1.044-.8-2.01-.904a1.604 1.604 0 0 1-.255-.852c0-.31.161-.611.483-.904.34-.31.764-.577 1.273-.8C51.11.231 52.256 0 53.495 0c1.255 0 2.222.198 2.9.594.696.379 1.044 1.136 1.044 2.273 0 2.41-1.612 7.205-4.835 14.384l-2.316 4.933c-1.595 3.271-2.8 5.492-3.614 6.663-1.459 2.083-2.74 3.125-3.843 3.125-.797 0-1.51-.319-2.138-.956-.22-.223-.39-.49-.508-.8ZM62.147 17.587c0-2.083.212-3.934.636-5.552.425-1.619.993-3.065 1.706-4.339a15.522 15.522 0 0 1 2.544-3.383A15.366 15.366 0 0 1 70.19 1.91C72.395.637 74.567 0 76.704 0c2.138 0 3.852.387 5.141 1.162a9.276 9.276 0 0 1 3.156 3.048c1.51 2.427 2.265 5.655 2.265 9.684 0 1.498-.62 2.264-1.858 2.299l-17.764.387c.102 3.736 1.052 6.5 2.85 8.29 1.528 1.515 3.504 2.273 5.93 2.273 3.614 0 6.55-.767 8.806-2.299.152 0 .34.13.56.387.424.517.636.965.636 1.343 0 .827-1.018 1.886-3.054 3.177-2.341 1.48-5.073 2.22-8.195 2.22-4.072 0-7.27-1.316-9.594-3.95-2.29-2.583-3.436-6.06-3.436-10.434Zm5.65-4.338c4.886-.242 9.357-.56 13.412-.956.186-5.475-1.68-8.213-5.6-8.213-2.188 0-3.978.861-5.369 2.583-1.272 1.584-2.087 3.78-2.443 6.585ZM106.633 31.61c-.34-.086-.883-.129-1.629-.129h-8.118c-1.63 0-2.673-.292-3.13-.878a1.175 1.175 0 0 1-.28-.775c0-.723.135-1.256.406-1.6.408.137.866.206 1.375.206.526 0 .916-.215 1.17-.646.272-.43.4-1.23.382-2.402V8.496c0-1.618-.297-2.625-.89-3.021-.238-.155-.552-.232-.942-.232-.39 0-.704.06-.942.18-.22.12-.407.207-.56.259-.135.051-.254.051-.356 0a1.534 1.534 0 0 1-.305-.284c-.255-.276-.382-.56-.382-.853 0-.31.102-.628.305-.955.22-.345.569-.732 1.044-1.162a9.186 9.186 0 0 1 1.628-1.214C96.784.404 98.158 0 99.532 0c1.51 0 2.418.973 2.723 2.918.102.586.17 1.188.204 1.808 2.545-2.049 5.209-3.478 7.991-4.287A10.667 10.667 0 0 1 113.402 0c4.038 0 6.592 1.618 7.66 4.855 2.647-2.135 5.336-3.607 8.068-4.416A11.544 11.544 0 0 1 132.286 0c1.068 0 2.095.146 3.079.439 1.001.293 1.858.766 2.57 1.42 1.561 1.412 2.342 3.564 2.342 6.457v17.329c0 1.412.475 2.29 1.425 2.634.271.103.594.19.967.258.373.069.712.155 1.018.258.305.086.543.19.712.31.289.224.433.586.433 1.085 0 .603-.136 1.076-.407 1.42-.339-.086-.882-.129-1.629-.129h-8.118c-1.629 0-2.672-.292-3.13-.878a1.173 1.173 0 0 1-.28-.775c0-.723.135-1.256.407-1.6a4.19 4.19 0 0 0 1.349.206c.492 0 .865-.164 1.119-.49.272-.345.425-.974.458-1.886V10.149c0-2.926-.856-4.562-2.57-4.906-.526-.104-1.154-.155-1.883-.155-.713 0-1.493.094-2.342.284-.831.172-1.628.413-2.392.723-1.476.602-2.765 1.369-3.868 2.298v17.252c0 1.429.475 2.307 1.425 2.634.272.103.594.19.967.258.373.069.704.155.993.258.305.086.543.19.712.31.289.224.433.586.433 1.085 0 .62-.127 1.093-.382 1.42-.339-.086-.882-.129-1.629-.129h-8.118c-1.629 0-2.672-.292-3.13-.878a1.173 1.173 0 0 1-.28-.775c0-.74.127-1.274.382-1.6.424.137.882.206 1.374.206.492 0 .865-.18 1.12-.543.271-.361.424-1.024.458-1.988V10.149c0-2.926-.857-4.562-2.571-4.906-.526-.104-1.162-.155-1.908-.155-.747 0-1.561.103-2.443.31-.883.206-1.723.482-2.52.826-1.527.637-2.842 1.446-3.945 2.428v16.993c0 1.412.484 2.29 1.451 2.634a4.9 4.9 0 0 0 .942.258c.373.069.712.155 1.018.258.305.086.543.19.712.31.289.224.433.586.433 1.085 0 .603-.136 1.076-.407 1.42ZM166.668 28.201c-2.477 2.514-5.472 3.77-8.984 3.77-2.715 0-4.886-.791-6.515-2.375-1.646-1.601-2.469-3.676-2.469-6.224 0-3.168 1.392-5.544 4.174-7.128 2.511-1.446 6.049-2.17 10.612-2.17h3.182c.017-.653.025-1.29.025-1.91v-1.937c0-2.307-.331-3.934-.992-4.881-.747-1.068-2.019-1.601-3.818-1.601-4.123 0-6.243 1.498-6.362 4.493a8.22 8.22 0 0 0 .025 1.162c-.339.276-.916.414-1.73.414-.798 0-1.383-.095-1.756-.284a3.11 3.11 0 0 1-.942-.775c-.577-.672-.865-1.524-.865-2.557 0-1.05.297-1.963.89-2.737.611-.792 1.434-1.438 2.469-1.937C155.631.508 158.015 0 160.763 0c2.749 0 4.81.275 6.185.826 1.391.534 2.494 1.249 3.308 2.144 1.442 1.584 2.163 3.71 2.163 6.379l-.254 12.396c0 2.255.101 3.684.305 4.287.221.603.475 1.007.764 1.214.305.207.67.31 1.094.31.441 0 .797-.07 1.069-.207l.712-.335c.238-.087.441.017.611.31.187.275.28.524.28.748 0 .207-.093.482-.28.827-.17.344-.5.714-.992 1.11a8.498 8.498 0 0 1-1.629 1.007c-3.376 1.619-5.675 1.24-6.897-1.136-.254-.465-.433-1.024-.534-1.679Zm-.077-3.383c0-2.479.017-4.941.051-7.386-3.529.138-5.93.37-7.202.698-1.256.31-2.163.61-2.723.903-.56.293-1.001.637-1.323 1.033-.526.655-.789 1.645-.789 2.97 0 1.309.458 2.36 1.374 3.151.916.775 2.231 1.162 3.945 1.162 2.426 0 4.648-.843 6.667-2.53Z" fill="#616353"/></svg>
